X:1
T:© James Gibb 1996
%%score [ ( 1 2 ) ( 3 4 ) ]
L:1/8
M:none
K:Eb
V:1 treble nm="RH"
V:2 treble 
V:3 bass nm="LH"
V:4 bass 
V:1
"^Love's redeeming work is done""^Charles Wesley\n(1707-88)" B,6 E2 | D2 A2 G2 F2 | G8 | %3
 E6"^James Gibb\n (1944- )" A2 | G2 c2 B2 =A2 | B8- | B4 B2 B2 | e6 B2 | _d4 c4 | B4 A2 F2 | %10
 G4 c4 | D4 F4 | E8 |] %13
V:2
 B,6 C2 | B,2 C2 D2 B,2 | B,8 | C6 E2 | E2 G2 F2 E2 | D8- | D4 D2 F2 | E4 E4 | G4 A4 | E4 D2 D2 | %10
w: ~~Love's re-|deem- ing work is|done;|fought the|fight, the batt- le|won:|* lo, our|Sun's e-|clipse is|o'er, lo, he|
w: ~~Vain the|stone, the watch, the|seal;|Christ has|burst the gates of|hell;|* death in|vain for-|bids his|rise; Christ has|
w: ~~Lives a-|gain our glor- ious|King;|where, O|death, is now thy|sting?|* Dy- ing|once, he|all doth|save; where thy|
w: ~~Soar we|now where Christ has|led,|follow- ing|our ex- alt- ed|Head;|* made like|him, like|him we|rise; ours the|
w: ~~Hail the|Lord of earth and|heaven!|praise to|thee by both be|given:|* thee we|greet tri-|umph- ant|now; hail, the|
 E6 E2 | B,4 D4 | B,8 |] %13
w: sets in|blood no|more.|
w: op- ened|Pa- ra-|dise.|
w: vic- to-|ry, O|grave?|
w: cross, the|grave, the|skies.|
w: Re- sur-|rec- tion|thou!|
V:3
 G,6 G,2 | A,2 E,2 B,2 A,2 | G,8 | G,6 A,2 | B,2 B,2 C2 C2 | F,8- | F,4 F,2 F,2 | B,4 _D4 | %8
 B,4 C4 | _D4 =B,2 A,2 | G,4 A,4 | B,4 A,4 | G,8 |] %13
V:4
 E,6 C,2 | B,,2 C,2 D,2 D,2 | E,8 | C,6 C,2 | E,2 C,2 F,2 F,,2 | B,,8- | B,,4 A,,2 A,,2 | %7
 G,,4 G,4 | E,4 A,4 | (A,2 G,2) =B,,2 B,,2 | B,,6 B,,2 | B,,6 B,,2 | E,8 |] %13

